icons/tokens/0x1c48f86ae57291F7686349F12601910BD8D470bb/logo.svg

<svg width="32" height="32" viewBox="0 0 32 32" fill="none" xmlns="http://www.w3.org/2000/svg">
<path fill-rule="evenodd" clip-rule="evenodd" d="M32 16C32 7.17152 24.8285 0 16 0C7.17152 0 0 7.17152 0 16C0 24.8285 7.17152 32 16 32C24.8285 32 32 24.8285 32 16Z" fill="#0D74F6"/>
<path fill-rule="evenodd" clip-rule="evenodd" d="M9.5152 7.51552L15.0118 7.50944V14.0067C16.5722 13.0838 18.1411 11.824 19.3872 9.80384L18.0922 7.51104L24.9264 7.52192C23.7053 10.8995 21.1965 13.7651 18.1046 15.569C14.729 17.5376 10.6096 18.1923 6.79264 17.3514C5.79968 17.1328 4.78976 16.8781 3.9024 16.3648C5.75968 16.5603 7.64608 16.6131 9.5152 16.2515V7.51552Z" fill="white"/>
<path fill-rule="evenodd" clip-rule="evenodd" d="M17.3405 17.1472C18.2435 16.7424 19.0688 16.1946 19.9098 15.6794L24.9334 24.5027L19.4739 24.512L16.5322 19.1376L15.0118 19.6262V24.512L9.5152 24.5056V18.7699C12.1974 18.8042 14.9094 18.3162 17.3405 17.1472Z" fill="white"/>
</svg>

<svg width="32" height="32" fill="none" xmlns="http://www.w3.org/2000/svg"><path fill-rule="evenodd" clip-rule="evenodd" d="M32 16c0-8.828-7.172-16-16-16S0 7.172 0 16s7.172 16 16 16 16-7.172 16-16z" fill="#0D74F6"/><path fill-rule="evenodd" clip-rule="evenodd" d="M9.515 7.516l5.497-.007v6.498c1.56-.923 3.13-2.183 4.375-4.203L18.092 7.51l6.834.01c-1.22 3.378-3.73 6.244-6.821 8.048-3.376 1.969-7.495 2.623-11.312 1.782-.993-.218-2.003-.473-2.89-.986 1.857.195 3.743.248 5.612-.113V7.515z" fill="#fff"/><path fill-rule="evenodd" clip-rule="evenodd" d="M17.34 17.147c.904-.405 1.729-.952 2.57-1.468l5.023 8.824-5.46.009-2.94-5.374-1.521.488v4.886l-5.497-.006V18.77c2.682.034 5.394-.454 7.825-1.623z" fill="#fff"/></svg>
